src/icons/github.svg

<svg height="32" viewBox="0 0 33 32" width="33" xmlns="http://www.w3.org/2000/svg"><path d="m19.024 22.385s-1.082.131-2.274.131-2.288-.121-2.288-.121c-2.785-.317-5.712-1.393-5.712-6.198 0-1.369.488-2.488 1.29-3.365-.128-.317-.559-1.592.123-3.319 0 0 1.053-.337 3.449 1.286 1-.278 2.073-.417 3.139-.422 1.065.005 2.138.144 3.14.422 2.394-1.623 3.445-1.286 3.445-1.286.684 1.727.254 3.002.125 3.319.803.877 1.289 1.996 1.289 3.365 0 4.817-2.932 5.878-5.726 6.188m-2.274-22.385c-8.837 0-16 7.163-16 16 0 8.836 7.163 16 16 16 8.836 0 16-7.164 16-16 0-8.837-7.164-16-16-16" fill="#9b9b9b" fill-rule="evenodd" opacity=".513644"/></svg>

<?xml version="1.0" encoding="UTF-8"?>
<svg width="33px" height="32px" viewBox="0 0 33 32" version="1.1" xmlns="http://www.w3.org/2000/svg" xmlns:xlink="http://www.w3.org/1999/xlink">
    <!-- Generator: Sketch 46.2 (44496) - http://www.bohemiancoding.com/sketch -->
    <title>icon_git</title>
    <desc>Created with Sketch.</desc>
    <defs></defs>
    <g id="Page-1" stroke="none" stroke-width="1" fill="none" fill-rule="evenodd" opacity="0.513643569">
        <g id="MH-Home-2" transform="translate(-1151.000000, -3352.000000)" fill="#9B9B9B">
            <g id="Footer" transform="translate(0.000000, 3328.000000)">
                <g id="Group-2" transform="translate(1010.000000, 24.000000)">
                    <g id="icon_git" transform="translate(141.000000, 0.000000)">
                        <path d="M19.024,22.385 C19.024,22.385 17.942,22.516 16.75,22.516 C15.558,22.516 14.462,22.395 14.462,22.395 C11.677,22.078 8.75,21.002 8.75,16.197 C8.75,14.828 9.238,13.709 10.04,12.832 C9.912,12.515 9.481,11.24 10.163,9.513 C10.163,9.513 11.216,9.176 13.612,10.799 C14.612,10.521 15.685,10.382 16.751,10.377 C17.816,10.382 18.889,10.521 19.891,10.799 C22.285,9.176 23.336,9.513 23.336,9.513 C24.02,11.24 23.59,12.515 23.461,12.832 C24.264,13.709 24.75,14.828 24.75,16.197 C24.75,21.014 21.818,22.075 19.024,22.385 M16.75,0 C7.913,0 0.75,7.163 0.75,16 C0.75,24.836 7.913,32 16.75,32 C25.586,32 32.75,24.836 32.75,16 C32.75,7.163 25.586,0 16.75,0" id="Fill-210"></path>
                    </g>
                </g>
            </g>
        </g>
    </g>
</svg>
